X: 2487
T: Ballydesmond, The
R: polka
M: 2/4
K: Adorian
|:AB|c2 B2|A2 G>A|B/c/d ed|g2 ed|
ea g/a/g/e/|dB GG/A/|Be dB|A2:|
|:Bd|ea ag/e/|dg gd|ea ab|g>f gd|
ea g/a/g/e/|dB GG/A/|Be dB|A2:|

